X:278
T: WENN DU BEI MEIN SCHAETZCHEN KOMMST, SAG: ICH LIESS SIE GRUESSEN
N: Z0276
O: Europa, Mitteleuropa, Deutschland, Nord - Deutschland
R: Lyrisches Lied, Romanze, Scherz - Lied
M: 2/4
L: 1/16
K: D
d2cBA2G2 | F2G2A4
d2cBA2G2 | F4E4
d2cBA2G2 | F2G2A4
F2D2E2C2 | D4D4
D2F2D2F2 | D2F2A4
C2E2C2E2 | C2E2G4
D2F2D2F2 | D2F2A4
F2D2E2C2 | D4D4

